ui/StatusQ/src/assets/img/icons/communities/leave.svg

<svg fill="none" height="24" viewBox="0 0 24 24" width="24" xmlns="http://www.w3.org/2000/svg"><path d="m10.5303 6.53033c.2929-.29289.2929-.76777 0-1.06066s-.76774-.29289-1.06063 0l-6 6.00003c-.29289.2929-.29289.7677 0 1.0606l6 6c.29289.2929.76773.2929 1.06063 0s.2929-.7677 0-1.0606l-3.86609-3.8661c-.31498-.315-.09189-.8536.35356-.8536h12.98223c.4142 0 .75-.3358.75-.75s-.3358-.75-.75-.75h-12.98223c-.44546 0-.66854-.5386-.35356-.8536z" fill="#4360df"/></svg>

<svg width="24" height="24" viewBox="0 0 24 24" fill="none" xmlns="http://www.w3.org/2000/svg">
<path d="M10.5303 6.53033C10.8232 6.23744 10.8232 5.76256 10.5303 5.46967C10.2374 5.17678 9.76256 5.17678 9.46967 5.46967L3.46967 11.4697C3.17678 11.7626 3.17678 12.2374 3.46967 12.5303L9.46967 18.5303C9.76256 18.8232 10.2374 18.8232 10.5303 18.5303C10.8232 18.2374 10.8232 17.7626 10.5303 17.4697L6.66421 13.6036C6.34923 13.2886 6.57232 12.75 7.01777 12.75H20C20.4142 12.75 20.75 12.4142 20.75 12C20.75 11.5858 20.4142 11.25 20 11.25H7.01777C6.57231 11.25 6.34923 10.7114 6.66421 10.3964L10.5303 6.53033Z" fill="#4360DF"/>
</svg>
